assets/Convenience store/Flat/convenience_store_flat.svg

<svg xmlns="http://www.w3.org/2000/svg" width="32" height="32" fill="none"><path fill="#D3D3D3" d="M7.99 10.01h16.03c.54 0 .98-.44.99-.99V3.99c0-.55-.45-.99-.99-.99H7.99c-.55 0-.99.45-.99.99v5.03c0 .55.45.99.99.99ZM3 12.01h26v16H3v-16Z"/><path fill="#533566" d="M23 4.5v4.02c0 .27-.22.49-.49.49h-.02a.49.49 0 0 1-.49-.49v-1.5h-2v1.5c0 .27-.22.49-.49.49h-.02a.49.49 0 0 1-.49-.49V4.5c0-.27.22-.49.49-.49h.02c.27 0 .49.22.49.49v1.51h2V4.5c0-.27.22-.49.49-.49h.02c.27 0 .49.22.49.49ZM12.14 9.01c.35 0 .53-.18.53-.53 0-.35-.19-.48-.54-.48h-1.39l.81-.83c.32-.31.54-.6.68-.88.13-.27.2-.55.2-.85 0-.47-.15-.82-.45-1.07-.3-.25-.74-.37-1.3-.37-.23 0-.47.03-.7.08-.23.05-.45.14-.67.25-.12.06-.21.15-.25.25-.05.1-.07.14-.05.24.02.1.06.19.12.27.06.08.15.13.25.16s.22.01.34-.05a1.634 1.634 0 0 1 .76-.21c.45 0 .69.24.69.59 0 .14-.04.28-.12.42-.08.14-.21.31-.39.5L9.42 7.82c-.1.1-.17.2-.23.3-.06.1-.07.18-.07.31 0 .19.05.33.14.42.09.1.24.14.44.14h2.44v.02Zm4.87-1.48c-.02.27-.25.47-.52.47h-.5v.49c0 .27-.2.5-.47.52a.496.496 0 0 1-.53-.5V8h-1.51c-.09 0-.17-.03-.25-.07-.01-.01-.02 0-.03-.01l-.03-.03a.234.234 0 0 1-.07-.07c-.02-.03-.04-.05-.05-.08-.01-.03-.03-.05-.03-.09a.355.355 0 0 1-.02-.1c0-.02-.01-.03-.01-.05 0-.02.01-.03.01-.04 0-.03.01-.07.02-.1s.02-.06.04-.09c.01-.01.01-.03.02-.04l2.01-3 .03-.03c.02-.03.04-.05.07-.07.03-.02.05-.04.08-.05.03-.02.06-.03.09-.04.03-.01.06-.02.1-.02.02 0 .03-.01.05-.01.02 0 .03.01.05.01.03 0 .06.01.09.02s.06.02.09.04c.01.01.03.01.04.02l.03.03c.03.02.05.04.07.07.02.03.04.05.05.08.01.03.03.05.03.09.01.03.02.07.02.1 0 .02.01.03.01.05v2.5h.51c.3-.02.53.22.51.51ZM15 7v-.85l-.57.85H15Z"/><path fill="#433B6B" d="M10 10.01h1v2h-1v-2Zm11 0h1v2h-1v-2Z"/><path fill="#635994" d="M14 28.01H5V18.6c0-.33.26-.59.59-.59h7.82c.33 0 .59.26.59.59v9.41Z"/><path fill="#83CBFF" d="M13 19.56v6.9c0 .3-.25.55-.55.55h-1.89c-.3 0-.55-.25-.55-.55v-6.9c0-.3.25-.55.55-.55h1.89c.3 0 .55.25.55.55ZM9 19.56v6.9c0 .3-.25.55-.55.55H6.56c-.3 0-.55-.25-.55-.55v-6.9c0-.3.25-.55.55-.55h1.89c.3 0 .55.25.55.55ZM17.49 24.01h8.03c.26 0 .48-.22.49-.49v-3.03a.49.49 0 0 0-.49-.49h-8.03a.49.49 0 0 0-.49.49v3.03c0 .27.22.49.49.49Z"/><path fill="#F8312F" d="M29.24 16.01H2.77a.77.77 0 0 1-.77-.77v-2.47c0-.42.34-.77.77-.77h26.47c.42 0 .77.34.77.77v2.47c-.01.43-.35.77-.77.77Z"/></svg>

<svg width="32" height="32" viewBox="0 0 32 32" fill="none" xmlns="http://www.w3.org/2000/svg">
<path d="M7.99 10.01H24.02C24.56 10.01 25 9.57 25.01 9.02V3.99C25.01 3.44 24.56 3 24.02 3H7.99C7.44 3 7 3.45 7 3.99V9.02C7 9.57 7.45 10.01 7.99 10.01Z" fill="#D3D3D3"/>
<path d="M3 12.01H29V28.01H3V12.01Z" fill="#D3D3D3"/>
<path d="M23 4.5V8.52C23 8.79 22.78 9.01 22.51 9.01H22.49C22.22 9.01 22 8.79 22 8.52V7.02H20V8.52C20 8.79 19.78 9.01 19.51 9.01H19.49C19.22 9.01 19 8.79 19 8.52V4.5C19 4.23 19.22 4.01 19.49 4.01H19.51C19.78 4.01 20 4.23 20 4.5V6.01H22V4.5C22 4.23 22.22 4.01 22.49 4.01H22.51C22.78 4.01 23 4.23 23 4.5ZM12.14 9.01C12.49 9.01 12.67 8.83 12.67 8.48C12.67 8.13 12.48 8 12.13 8H10.74L11.55 7.17C11.87 6.86 12.09 6.57 12.23 6.29C12.36 6.02 12.43 5.74 12.43 5.44C12.43 4.97 12.28 4.62 11.98 4.37C11.68 4.12 11.24 4 10.68 4C10.45 4 10.21 4.03 9.97998 4.08C9.74998 4.13 9.52998 4.22 9.30998 4.33C9.18998 4.39 9.09998 4.48 9.05998 4.58C9.00998 4.68 8.98998 4.72 9.00998 4.82C9.02998 4.92 9.06998 5.01 9.12998 5.09C9.18998 5.17 9.27998 5.22 9.37998 5.25C9.47998 5.28 9.59998 5.26 9.71998 5.2C9.85998 5.12 9.98998 5.07 10.12 5.04C10.25 5.01 10.37 4.99 10.48 4.99C10.93 4.99 11.17 5.23 11.17 5.58C11.17 5.72 11.13 5.86 11.05 6C10.97 6.14 10.84 6.31 10.66 6.5L9.41998 7.82C9.31998 7.92 9.24998 8.02 9.18998 8.12C9.12998 8.22 9.11998 8.3 9.11998 8.43C9.11998 8.62 9.16998 8.76 9.25998 8.85C9.34998 8.95 9.49998 8.99 9.69998 8.99H12.14V9.01ZM17.01 7.53C16.99 7.8 16.76 8 16.49 8H15.99V8.49C15.99 8.76 15.79 8.99 15.52 9.01C15.23 9.03 14.99 8.8 14.99 8.51V8H13.48C13.39 8 13.31 7.97 13.23 7.93C13.22 7.92 13.21 7.93 13.2 7.92C13.19 7.91 13.18 7.9 13.17 7.89C13.14 7.87 13.12 7.85 13.1 7.82C13.08 7.79 13.06 7.77 13.05 7.74C13.04 7.71 13.02 7.69 13.02 7.65C13.01 7.62 13 7.58 13 7.55C13 7.53 12.99 7.52 12.99 7.5C12.99 7.48 13 7.47 13 7.46C13 7.43 13.01 7.39 13.02 7.36C13.03 7.33 13.04 7.3 13.06 7.27C13.07 7.26 13.07 7.24 13.08 7.23L15.09 4.23C15.1 4.22 15.11 4.21 15.12 4.2C15.14 4.17 15.16 4.15 15.19 4.13C15.22 4.11 15.24 4.09 15.27 4.08C15.3 4.06 15.33 4.05 15.36 4.04C15.39 4.03 15.42 4.02 15.46 4.02C15.48 4.02 15.49 4.01 15.51 4.01C15.53 4.01 15.54 4.02 15.56 4.02C15.59 4.02 15.62 4.03 15.65 4.04C15.68 4.05 15.71 4.06 15.74 4.08C15.75 4.09 15.77 4.09 15.78 4.1C15.79 4.11 15.8 4.12 15.81 4.13C15.84 4.15 15.86 4.17 15.88 4.2C15.9 4.23 15.92 4.25 15.93 4.28C15.94 4.31 15.96 4.33 15.96 4.37C15.97 4.4 15.98 4.44 15.98 4.47C15.98 4.49 15.99 4.5 15.99 4.52V7.02H16.5C16.8 7 17.03 7.24 17.01 7.53ZM15 7V6.15L14.43 7H15Z" fill="#533566"/>
<path d="M10 10.01H11V12.01H10V10.01ZM21 10.01H22V12.01H21V10.01Z" fill="#433B6B"/>
<path d="M14 28.01H5V18.6C5 18.27 5.26 18.01 5.59 18.01H13.41C13.74 18.01 14 18.27 14 18.6V28.01Z" fill="#635994"/>
<path d="M13 19.56V26.46C13 26.76 12.75 27.01 12.45 27.01H10.56C10.26 27.01 10.01 26.76 10.01 26.46V19.56C10.01 19.26 10.26 19.01 10.56 19.01H12.45C12.75 19.01 13 19.26 13 19.56Z" fill="#83CBFF"/>
<path d="M9.00001 19.56V26.46C9.00001 26.76 8.75001 27.01 8.45001 27.01H6.56001C6.26001 27.01 6.01001 26.76 6.01001 26.46V19.56C6.01001 19.26 6.26001 19.01 6.56001 19.01H8.45001C8.75001 19.01 9.00001 19.26 9.00001 19.56Z" fill="#83CBFF"/>
<path d="M17.49 24.01H25.52C25.78 24.01 26 23.79 26.01 23.52V20.49C26.01 20.22 25.79 20 25.52 20H17.49C17.22 20 17 20.22 17 20.49V23.52C17 23.79 17.22 24.01 17.49 24.01Z" fill="#83CBFF"/>
<path d="M29.24 16.01H2.77C2.35 16.01 2 15.67 2 15.24V12.77C2 12.35 2.34 12 2.77 12H29.24C29.66 12 30.01 12.34 30.01 12.77V15.24C30 15.67 29.66 16.01 29.24 16.01Z" fill="#F8312F"/>
</svg>
